X: 10921
Q: "Very slow."
M: C
L: 1/8
K: Fmix
|: d |\
c2(cd) f3g | (f<d)(c>d) B3d |\
{d}c3d f3e | {e}d4 c3d |\
c2(cd) f3g | (f>d)(c>B) B3c/d/ |\


